X:1
T:Do Something for Jesus (Powell)
T:Do Something for Jesus (Powell)
T:Benjamin Newton Hultsman, Jr.
T:Ada Powell, 1904
T:Public Domain Courtesy of the Cyber Hymnal™
C:Benjamin Newton Hultsman, Jr.
Z:Public Domain
Z:Courtesy of the Cyber Hymnal™
%%score 1 ( 2 3 )
L:1/8
Q:1/4=88
M:6/8
K:G
V:1 treble 
V:2 bass 
V:3 bass 
V:1
 [B,D] | [DB]>[CA][B,G] [CA][CG][CE] | [B,D] [B,G]4 [B,G] | [DB]>[CA][B,G] [^CG][CF][CG] | %4
w: 1.~Do|some- thing for Je- sus, be-|liev- er, Some|tal- ent was giv- en to|
w: 2.~Why|stand you so i- dle and|list- less? Oh,|rouse you, dear Christ- ian, take|
w: 3.~The|har- vest so swift- ly is|pass- ing, There’s|work for the fee- ble and|
 [DA]3- [DA]2 [DB] | [Gd]>[Ge][Gd] [GB][DA][DG] | [EA] [CE]4 [Ec] | [DB]>[CA][B,G] [CA][CE][CF] | %8
w: you; * What-|ev- er in life is your|sta- tion, There’s|some- thing or o- ther to|
w: heed; * The|weak and the err- ing are|near you, The|sick and the help- less in|
w: strong; * And|fol- low- ing af- ter the|Sav- ior, There’s|work for the old and the|
 [B,G]3- [B,G]2 ||"^Refrain" [DB] | [Gd]>[Ge][Gd] [GB][DA][DG] | [EA]>[EG][CE] [CE][B,D][B,D] | %12
w: do. *||||
w: need. *|Do|some- thing for Je- sus, Do|some- thing for Je- sus, Oh,|
w: young. *||||
!>(! [B,B]!>)! z/ [B,G]/[B,G] [^CB][CA][CG] | [DA]3- [DA]2 [DB] | [Gd]>[Ge][Gd] [GB][DA][DG] | %15
w: |||
w: work in His vine- yard, I|pray; * Bring|one to be- lieve Him, To|
w: |||
 [EA]>[EG][CE] [CE][B,D][B,G] | [DB]>[DA][DG] [CA][CE][CF] | [B,G]3- [B,G]2 |] %18
w: |||
w: love and re- ceive Him, Do|some- thing for Je- sus to-|day. *|
w: |||
V:2
 [G,,G,] | [G,,G,]>[G,,G,][G,,G,] [C,E,][C,E,][C,G,] | [G,,G,] [G,,G,]4 G, | %3
 G,>G,G, [E,A,][E,A,][E,A,] | [D,F,]3- [D,F,]2 G, | [G,B,]>[G,C][G,B,] [G,D][G,C][G,B,] | %6
 [C,C] [C,G,]4 [C,G,] | [D,G,]>[D,F,][D,G,] [D,F,][D,A,][D,A,] | [G,,G,]3- [G,,G,]2 || G, | %10
 [G,B,]>[G,C][G,B,] [G,D][G,C][G,B,] | [C,C]>[C,D][C,G,] [G,,G,][G,,G,][G,,G,] | %12
 [E,G,] z/ [E,G,]/[E,G,] [A,,E,][A,,F,][A,,G,] | [D,F,]3- [D,F,]2 G, | %14
 [G,B,]>[G,C][G,B,] [G,D][G,C][G,B,] | [C,C]>[C,C][C,G,] [G,,G,][G,,G,][G,,G,] | %16
 [G,,G,]>[A,,F,][B,,G,] [D,F,][D,A,][D,A,] | [G,,G,]3- [G,,G,]2 |] %18
V:3
 x | x6 | x5 G, | G,>G,G, x3 | x5 G, | x6 | x6 | x6 | x5 || G, | x6 | x6 | x6 | x5 G, | x6 | x6 | %16
 x6 | x5 |] %18

